app/dist/common/images/red-5-limited.svg

<svg height="18" viewBox="0 0 18 18" width="18" xmlns="http://www.w3.org/2000/svg"><path d="m0 0h18v18h-18z" fill="#b8bab9"/><path d="m10.1 15 3.9-10h-10l3.9 10z" fill="#fefefe"/><path d="m8.78 5h-4.07l.26.69h3.81zm-3.27 2-.4-1h3.67v1zm.19.41.54 1.38h2.54v-1.38zm1.49 3.59-.8-1.86h2.4v1.86zm2.03-6h4.07l-.26.69h-3.8v-.69zm3.27 2 .4-1h-3.67v1zm-.19.41-.53 1.38h-2.55v-1.38zm-1.48 3.59.8-1.86h-2.4v1.86z"/><path d="m7.33 11.55.98 2.42h1.38l.98-2.42z" fill="#cc0001"/></svg>

<!-- by TradingView --><svg width="18" height="18" viewBox="0 0 18 18" xmlns="http://www.w3.org/2000/svg"><path fill="#B8BAB9" d="M0 0h18v18H0z"/><path d="M10.1 15 14 5H4l3.9 10h2.2Z" fill="#FEFEFE"/><path d="M8.78 5H4.71l.26.69h3.81V5ZM5.51 7l-.4-1h3.67v1H5.51ZM5.7 7.41l.54 1.38h2.54V7.41H5.7ZM7.19 11l-.8-1.86h2.4V11h-1.6ZM9.22 5h4.07l-.26.69h-3.8V5ZM12.49 7l.4-1H9.22v1h3.27ZM12.3 7.41l-.53 1.38H9.22V7.41h3.08ZM10.82 11l.8-1.86h-2.4V11h1.6Z"/><path d="m7.33 11.55.98 2.42h1.38l.98-2.42H7.33Z" fill="#CC0001"/></svg>
